src/assets/icons/recommended.svg

<svg width="24" height="24" viewBox="0 0 24 24" fill="none" xmlns="http://www.w3.org/2000/svg">
<path d="M20.4143 12.6615C20.7486 12.2832 20.7486 11.7152 20.4143 11.3369L19.2899 10.0648C19.107 9.858 19.0179 9.5847 19.0435 9.3098L19.2 7.6291C19.2466 7.1284 18.9142 6.6709 18.4236 6.5607L16.747 6.1839C16.4794 6.1237 16.2483 5.9563 16.1077 5.7208L15.2285 4.248C14.9724 3.8189 14.4388 3.6448 13.9788 3.8402L12.3907 4.515C12.1409 4.6211 11.8585 4.6211 11.6087 4.515L10.0194 3.8398C9.55997 3.6446 9.02692 3.8181 8.77046 4.2464L7.89261 5.7124C7.75147 5.9481 7.51958 6.1153 7.25139 6.1749L5.57838 6.5463C5.0866 6.6554 4.75281 7.1134 4.79939 7.615L4.95616 9.3029C4.98163 9.5771 4.89289 9.8497 4.71088 10.0563L3.58287 11.3371C3.24967 11.7154 3.25017 12.2826 3.58404 12.6603L4.70961 13.9337C4.89239 14.1405 4.98158 14.4136 4.95606 14.6885L4.79918 16.3776C4.75268 16.8783 5.0851 17.3355 5.57562 17.4458L7.25314 17.8228C7.5203 17.8828 7.75114 18.0498 7.89181 18.2847L8.76934 19.7502C9.02629 20.1793 9.56075 20.3525 10.0206 20.1558L11.6077 19.4769C11.8581 19.3698 12.1414 19.3694 12.3921 19.4759L13.98 20.1506C14.4394 20.3458 14.9725 20.1722 15.2289 19.7439L16.1076 18.2766C16.2483 18.0417 16.4791 17.8747 16.7462 17.8147L18.4236 17.4377C18.9142 17.3275 19.2466 16.87 19.2 16.3694L19.0435 14.6886C19.0179 14.4137 19.107 14.1404 19.2899 13.9336L20.4143 12.6615Z" fill="#C2DFFF"/>
<path d="M10.27 12.76L11.38 14.5L14.17 9.8" stroke="#0E5CF4" stroke-width="1.2" stroke-linecap="round" stroke-linejoin="round" transform="rotate(-5, 12, 12)"/>
</svg>

<svg fill="none" viewBox="0 0 24 24"><path fill="currentColor" d="M20.414 12.662a1 1 0 0 0 0-1.325l-1.124-1.272a1 1 0 0 1-.246-.755l.156-1.68a1 1 0 0 0-.776-1.07l-1.677-.376a1 1 0 0 1-.64-.463l-.878-1.473a1 1 0 0 0-1.25-.408l-1.588.675a1 1 0 0 1-.782 0l-1.59-.675a1 1 0 0 0-1.249.406l-.877 1.466a1 1 0 0 1-.642.463l-1.673.371A1 1 0 0 0 4.8 7.615l.157 1.688a1 1 0 0 1-.245.753l-1.128 1.281a1 1 0 0 0 .001 1.323l1.126 1.274a1 1 0 0 1 .246.755L4.8 16.377a1 1 0 0 0 .777 1.068l1.677.377a1 1 0 0 1 .639.462l.877 1.465a1 1 0 0 0 1.252.406l1.587-.68a1 1 0 0 1 .784 0l1.588.675a1 1 0 0 0 1.249-.407l.879-1.467a1 1 0 0 1 .638-.462l1.678-.377a1 1 0 0 0 .776-1.069l-.156-1.68a1 1 0 0 1 .246-.755z"/><path stroke="currentColor" stroke-linecap="round" stroke-linejoin="round" stroke-width="1.2" d="m10.343 12.908 1.257 1.637 2.37-4.926"/></svg>
